X: 223
T: My Love is a Lady
B: O'Neill's 223
N: "Playful"
N: "Collected by F.O'Neill"
Z: 1997 by John Chambers <jc@trillian.mit.edu>
M: 6/8
L: 1/8
K:G
G \
|ded gab|bagf g2f/e/|dcB GFG|BAz z2B/c/|
|ded gab|bagf g2f/e/|dBG FDA|G3- G2||
||d \
|gag bag|c'ba b/g/zz|afd gag|fedc d2d|
|bgd B/G/ z a/b/|c'ag f/d/ z e/f/|gBd FDA|G3- G2||
